X:0831
M:C|
L:1/8
Q:1/2=104
K:D
fdad fadb|adfd efgb    |adfa gbeg|faef d/d/d d2 |
fdad fadb|adfd efge    |dBGd ceAg|faef d/d/d d2|]

